src/24/panel/signal-unread-1.svg

<svg xmlns="http://www.w3.org/2000/svg" width="24" height="24" version="1.1">
 <defs>
  <style id="current-color-scheme" type="text/css">
   .ColorScheme-Text { color:#dfdfdf; } .ColorScheme-Highlight { color:#4285f4; }
  </style>
 </defs>
 <path style="fill:currentColor" class="ColorScheme-Text" d="M 12.017578,4 C 8.1248064,4 4.8883592,6.5954436 4.1835938,10.027344 A 7.9814888,7.5 0 0 0 4,11.603516 7.9814888,7.5 0 0 0 5.2324219,15.580078 3,3 0 0 1 7,15 3,3 0 0 1 7.4707031,15.04102 l -0.3730469,-0.410157 -0.023437,-0.02734 -0.021484,-0.0293 -0.2734375,-0.41211 -0.013672,-0.02148 -0.011719,-0.02344 -0.00977,-0.01563 0.5976563,-0.318359 0.2675781,-0.177734 0.017578,0.02734 0.2324219,0.34961 0.6152344,0.679687 0.3515625,0.265625 -0.3476563,0.464844 a 3,3 0 0 1 0.796875,0.65625 l 0.3144532,-0.644531 0.4726562,0.232422 0.941406,0.269531 0.328125,0.04492 -0.136719,0.992187 -0.351562,-0.04883 -0.0332,-0.0059 -0.0332,-0.0098 L 9.74609,16.58781 9.703121,16.57609 9.662105,16.55461 9.611324,16.52922 A 3,3 0 0 1 10,18 3,3 0 0 1 9.8808594,18.826172 7.9814888,7.5 0 0 0 11.982422,19.103516 7.9814888,7.5 0 0 0 19.818359,12.996094 C 19.935088,12.490394 20,11.965934 20,11.427734 20,7.3250348 16.425354,3.9999999 12.017578,4 Z m -0.02148,2 h 0.02148 0.02344 l 0.5625,0.025391 0.02148,0.00195 0.02344,0.00391 0.544921,0.074219 0.0332,0.00586 0.0332,0.00977 0.15625,0.042969 -0.271485,0.9628906 -0.113281,-0.033203 -0.5,-0.070312 -0.513672,-0.021484 -0.513672,0.021484 -0.138672,0.019531 -0.136718,-0.9902344 0.160156,-0.021484 0.02344,-0.00391 0.02149,-0.00195 z M 10.191406,6.2871094 10.460938,7.2480469 10.0625,7.3632812 9.2109375,7.7832031 8.8515625,8.0527344 8.2539062,7.2519531 8.6503906,6.953125 8.6875,6.9257812 8.7285156,6.90625 9.6621094,6.4453125 9.703125,6.4238281 9.7460938,6.4121094 Z m 4.263672,0.1972656 0.853516,0.421875 0.04101,0.019531 0.03516,0.027344 0.814453,0.6113281 0.03516,0.029297 0.0332,0.035156 0.01953,0.021484 -0.482421,0.4394532 -0.205079,0.2753906 -0.773437,-0.5820313 -0.8125,-0.4023437 z m -7.0078124,1.5 L 8.1855469,8.65625 7.859375,9.015625 7.6230469,9.375 7.4160156,9.767578 7.2421875,10.195313 6.3164062,9.822266 6.5,9.367188 6.50977,9.341798 6.521489,9.320318 6.7539108,8.8828175 l 0.011719,-0.023437 0.013672,-0.021484 0.2734375,-0.4121094 0.021484,-0.029297 0.023437,-0.027344 z m 9.5546874,0.46875 0.255859,0.3847656 0.01367,0.021484 0.01172,0.023437 0.232422,0.4375004 0.01172,0.02148 0.0098,0.02539 0.185547,0.458984 0.0098,0.02539 0.0078,0.02539 0.134766,0.478516 0.0078,0.02734 0.0039,0.02734 0.0078,0.04687 -0.923828,0.15625 -0.05664,0.01563 -0.002,-0.0059 h -0.002 L 16.90625,10.603516 16.785156,10.171875 16.623047,9.767578 16.414062,9.375 16.171875,9.007813 Z m -10.9335936,2.447266 0.5351562,0.08984 0.453125,0.02539 L 7.03125,11.5 7.0546875,11.953125 7.1289062,12.392578 7.25,12.822266 6.2890625,13.09375 6.1621094,12.644531 l -0.00781,-0.02734 -0.00391,-0.02734 -0.082031,-0.496094 -0.00391,-0.02734 -0.00195,-0.02734 -0.029297,-0.511718 V 11.5 11.472656 L 6.0625,10.960938 6.06445,10.933594 6.06836,10.90625 Z m 10.9394526,0.572265 0.996094,0.05469 -0.0293,0.511718 -0.002,0.02734 -0.0039,0.02734 -0.08398,0.496094 -0.0039,0.02734 -0.0078,0.02734 -0.132813,0.478516 -0.0078,0.02539 -0.0098,0.02539 -0.18164,0.451172 -0.925782,-0.373047 0.169922,-0.423828 0.123047,-0.435547 0.07422,-0.439453 z m -0.808593,2.488282 0.738281,0.671874 -0.669922,0.738282 -0.0332,0.03516 -0.03516,0.0293 -0.802735,0.601562 -0.597656,-0.798828 0.763672,-0.576172 z m -2.179688,1.664062 0.05469,0.195312 0.351562,0.710938 -0.05078,0.02344 -0.04102,0.02148 -0.04297,0.01172 -1.03125,0.291015 -0.0332,0.0098 -0.0332,0.0059 -0.544921,0.07422 -0.02344,0.0039 -0.02148,0.002 -0.322266,0.01367 -0.04492,-1 0.294922,-0.01172 0.501953,-0.07031 0.945313,-0.269531 0.0039,-0.002 z"/>
 <circle style="fill:currentColor" class="ColorScheme-Highlight" cx="7" cy="18" r="2"/>
</svg>

<svg xmlns="http://www.w3.org/2000/svg" width="24" height="24"><path d="M12.018 4c-3.893 0-7.13 2.595-7.834 6.027A7.981 7.5 0 0 0 4 11.604a7.981 7.5 0 0 0 1.232 3.976A3 3 0 0 1 7 15a3 3 0 0 1 .47.041l-.372-.41-.024-.027-.021-.03-.274-.412-.013-.021-.012-.024-.01-.015.598-.319.267-.178.018.028.232.35.616.68.351.265-.347.465a3 3 0 0 1 .796.656l.315-.645.472.233.942.27.328.044-.137.992-.351-.048-.033-.006-.034-.01-1.03-.291-.044-.012-.04-.021-.052-.026A3 3 0 0 1 10 18a3 3 0 0 1-.12.826 7.981 7.5 0 0 0 2.102.278 7.981 7.5 0 0 0 7.836-6.108c.117-.506.182-1.03.182-1.568C20 7.325 16.425 4 12.018 4zm-.022 2h.045l.563.025.021.002.023.004.545.074.034.006.033.01.156.043-.271.963-.114-.033-.5-.07-.513-.022-.514.021-.139.02-.136-.99.16-.022.023-.004.022-.002zm-1.805.287l.27.961-.399.115-.851.42-.36.27-.597-.801.396-.299.037-.027.042-.02.933-.46.041-.022.043-.012zm4.264.197l.854.422.04.02.036.027.814.611.035.03.034.035.02.021-.483.44-.205.275-.774-.582-.812-.402zm-7.008 1.5l.739.672-.327.36-.236.359-.207.393-.174.427-.926-.373.184-.455.01-.025.011-.022.233-.437.012-.024.013-.021.274-.412.021-.03.024-.027zm9.555.47l.256.384.013.021.012.024.233.437.011.022.01.025.186.46.01.025.007.025.135.478.008.028.004.027.008.047-.924.156-.057.016-.002-.006h-.002l-.004-.02-.12-.431-.163-.404-.209-.393-.242-.367zM6.068 10.9l.536.09.453.026-.026.484.024.453.074.44.121.43-.96.27-.128-.448-.008-.028-.004-.027-.082-.496-.004-.028-.002-.027-.029-.512v-.054l.03-.512.001-.027.004-.028zm10.94.573l.996.054-.03.512-.001.027-.004.028-.084.496-.004.027-.008.028-.133.478-.008.025-.01.026-.181.451-.926-.373.17-.424.123-.435.074-.44zm-.809 2.488l.739.672-.67.738-.034.035-.035.03-.803.601-.597-.799.763-.576zm-2.18 1.664l.055.195.352.711-.051.024-.041.021-.043.012-1.031.29-.033.01-.034.007-.545.074-.023.004-.021.002-.323.013-.045-1 .295-.011.502-.07.946-.27.003-.002z" fill="currentColor" color="#323232"/><circle cx="7" cy="18" r="2" fill="currentColor" color="#5294e2"/></svg>
